images/01/mail.svg

<svg fill="none" height="49" viewBox="0 0 182 49" width="182" xmlns="http://www.w3.org/2000/svg"><g fill="#555"><path d="m70.3834 18.7266c-2.3302 0-3.483 1.841-4.0119 3.0286-.2955.6631-.3782 1.1874-.6178 1.1874-.3377 0-.0959-.4557-.3722-1.4662-.3636-1.3296-1.4595-2.7498-3.7881-2.7498-2.4481 0-3.4963 2.0767-3.9934 3.2179-.3398.7801-.3403.9981-.6016.9981-.3788 0-.065-.6197.1053-1.3482.3357-1.4344.0805-2.5306.0805-2.5306h-3.8807v14.6515h5.2971s0-6.1232 0-7.2898c0-1.4378.599-3.2623 1.6259-3.2623 1.1864 0 1.4239.9148 1.4239 2.6088v7.9465h5.3184s0-6.1604 0-7.293c0-1.2798.5202-3.2623 1.6336-3.2623 1.203 0 1.416 1.2852 1.416 2.6088v7.9433h5.2228s0-5.8053 0-8.616c0-3.8235-1.3425-6.3727-4.8578-6.3727z"/><path d="m160.294 18.7266c-2.33 0-3.483 1.841-4.012 3.0286-.296.6631-.378 1.1874-.618 1.1874-.338 0-.111-.5789-.372-1.4662-.388-1.3226-1.354-2.7498-3.788-2.7498-2.448 0-3.496 2.0767-3.993 3.2179-.34.7801-.341.9981-.602.9981-.379 0-.065-.6197.105-1.3482.336-1.4344.081-2.5306.081-2.5306h-3.881v14.6515h5.297s0-6.1232 0-7.2898c0-1.4378.599-3.2623 1.626-3.2623 1.186 0 1.424.9148 1.424 2.6088v7.9465h5.318s0-6.1604 0-7.293c0-1.2798.521-3.2623 1.634-3.2623 1.203 0 1.416 1.2852 1.416 2.6088v7.9433h5.223s0-5.8053 0-8.616c0-3.8235-1.343-6.3727-4.858-6.3727z"/><path d="m82.9963 30.2955c-1.2667.2937-1.9234-.098-1.9234-.9409 0-1.1548 1.1896-1.6172 2.8877-1.6172.7485 0 1.4523.065 1.4523.065 0 .4942-1.0686 2.1809-2.4166 2.4931zm1.2896-11.5611c-4.0577 0-6.9692 1.4978-6.9692 1.4978v4.4027s3.2153-1.8561 5.8236-1.8561c2.082 0 2.3378 1.1274 2.2429 2.0631 0 0-.6002-.1596-2.4327-.1596-4.3173 0-6.4969 1.9701-6.4969 5.1291 0 2.9965 2.4495 4.2491 4.5131 4.2491 3.0114 0 4.3351-2.0317 4.7419-2.9957.2823-.6687.3337-1.1194.5873-1.1194.2889 0 .1917.3233.1777.9889-.0245 1.1655.0301 2.0466.2142 2.7888h3.9925v-7.2105c0-4.5019-1.5864-7.7782-6.3944-7.7782z"/><path d="m99.4059 33.7228h5.2971v-19.09h-5.2971z"/><path d="m110.534 26.3973c0-1.3174 1.219-2.5159 3.457-2.5159 2.438 0 4.399 1.1787 4.839 1.4464v-5.0956s-1.549-1.4978-5.358-1.4978c-4.014 0-7.357 2.3585-7.357 7.4349 0 5.0763 3.034 7.8912 7.347 7.8912 3.368 0 5.377-1.8584 5.377-1.8584v-4.84c-.636.357-2.406 1.5904-4.824 1.5904-2.561 0-3.481-1.1825-3.481-2.5552z"/><path d="m129.561 18.7342c-3.067 0-4.233 2.9177-4.469 3.4244-.235.5064-.352.7979-.545.7917-.334-.011-.101-.6219.029-1.0176.247-.7473.77-2.7082.77-5.1182 0-1.6346-.22-2.1817-.22-2.1817h-4.573v19.0901h5.297s0-6.1023 0-7.2895c0-1.1876.472-3.2625 1.806-3.2625 1.106 0 1.452.8223 1.452 2.4782v8.0738h5.297s0-4.4653 0-7.7551c0-3.761-.621-7.2336-4.844-7.2336z"/><path d="m136.126 19.0859v14.6347h5.298v-14.6347s-.891.5229-2.643.5229c-1.753 0-2.655-.5229-2.655-.5229z"/><path d="m138.76 14.4805c-1.791 0-3.243.9513-3.243 2.1249 0 1.1734 1.452 2.1247 3.243 2.1247 1.79 0 3.242-.9513 3.242-2.1247 0-1.1736-1.452-2.1249-3.242-2.1249z"/><path d="m92.3947 19.0859v14.6347h5.297v-14.6347s-.8903.5229-2.6431.5229c-1.7526 0-2.6539-.5229-2.6539-.5229z"/><path d="m95.0274 14.4805c-1.7907 0-3.2425.9513-3.2425 2.1249 0 1.1734 1.4518 2.1247 3.2425 2.1247 1.7908 0 3.2426-.9513 3.2426-2.1247 0-1.1736-1.4518-2.1249-3.2426-2.1249z"/><path d="m174.222 30.57c-1.215 0-2.109-1.5469-2.109-3.7022 0-2.0931.919-3.7014 2.067-3.7014 1.475 0 2.103 1.3573 2.103 3.7014 0 2.4386-.579 3.7022-2.061 3.7022zm1.454-11.8434c-2.723 0-3.971 2.0501-4.513 3.2179-.359.7717-.341.9981-.602.9981-.379 0-.065-.6197.106-1.3482.335-1.4344.08-2.5306.08-2.5306h-3.881v18.6979h5.297s0-3.0597 0-5.9282c.627 1.0676 1.788 2.2084 3.578 2.2084 3.831 0 5.759-3.2539 5.759-7.6504 0-4.9829-2.308-7.6649-5.824-7.6649z"/><path d="m34.5896 23.1571c.3562-.0426.6975-.0446 1.0111 0 .1815-.4179.2127-1.1384.0494-1.9229-.2427-1.1662-.571-1.8719-1.2498-1.7621-.6786.1099-.7037.9548-.461 2.121.1365.6559.3795 1.2166.6503 1.564z"/><path d="m28.763 24.0786c.4855.214.784.3558.9007.2318.0751-.0772.0528-.2246-.0631-.4149-.2397-.3928-.7328-.7911-1.2558-1.0149-1.0696-.4623-2.3453-.3085-3.3295.4014-.3247.2391-.6327.5701-.5887.7712.0143.065.0629.114.1769.13.268.0308 1.2039-.4445 2.2822-.5107.761-.0468 1.3916.1922 1.8773.4061z"/><path d="m27.7863 24.6377c-.6326.1002-.9815.3097-1.2054.5043-.191.1676-.3092.353-.3082.4835.0004.062.0273.0978.0484.1158.0289.0254.063.0396.104.0396.1429 0 .4628-.1291.4628-.1291.8802-.3162 1.4608-.2778 2.0361-.212.318.0358.4682.0556.538-.0538.0207-.0314.0456-.0994-.018-.203-.1482-.2413-.7868-.6491-1.6578-.5453"/><path d="m32.6221 26.6934c.4294.2118.9021.1286 1.0562-.1858.1538-.3143-.0696-.7409-.4991-.953-.4294-.2116-.9021-.1286-1.0561.1858-.1538.3145.0695.741.499.953z"/><path d="m35.3828 24.2696c-.3488-.006-.6381.3787-.6463.8589-.0082.4805.2682.8746.617.8806.3489.006.6384-.3787.6463-.859.0082-.4804-.2681-.8747-.617-.8805z"/><path d="m11.9499 32.9311c-.0867-.1092-.2293-.076-.3674-.0436-.0964.0226-.2057.048-.3254.046-.2566-.0051-.4739-.115-.5959-.3033-.159-.245-.1498-.6104.0257-1.0285.0236-.0566.0515-.1192.0819-.1874.2797-.6304.748-1.6853.2223-2.6904-.3958-.7566-1.04117-1.2278-1.81714-1.3266-.74494-.0949-1.5119.1824-2.0011.7243-.77178.8549-.8924 2.0183-.74314 2.4293.05472.1505.14023.1921.20244.2007.13126.0176.32544-.0782.44709-.4069.00869-.0235.02027-.0602.03478-.1068.05428-.1736.15518-.4971.32048-.7563.19931-.3127.50975-.5279.87412-.6063.37122-.0798.75062-.0086 1.0682.2002.54073.355.74887 1.0201.51808 1.6548-.1193.3283-.31317.9558-.27035 1.4717.08638 1.0436.72574 1.4628 1.30024 1.5074.5586.021.9489-.2936 1.0477-.5238.0583-.1361.0091-.2189-.0225-.2545"/><path d="m17.2599 13.7606c1.8217-2.1135 4.0643-3.95096 6.0732-4.98271.0695-.03584.1432.04003.1056.10842-.1596.29004-.4666.91114-.5641 1.38219-.0151.0734.0644.1286.1262.0864 1.2497-.8553 3.4239-1.77184 5.3309-1.88966.0819-.0051.1216.10041.0564.15062-.2901.22344-.6073.53248-.839.84513-.0394.05319-.0022.12982.0638.13022 1.339.00958 3.2267.48009 4.4571 1.17299.0833.0468.0239.2086-.0691.1872-1.8616-.4282-4.9088-.7533-8.0741.0218-2.8259.6922-4.9827 1.7605-6.5562 2.9095-.0795.0582-.175-.0472-.1107-.122zm9.073 20.478c.0002.0004.0004.0011.0005.0011.0004.0006.0006.0017.0012.0023-.0006-.0012-.0012-.0023-.0017-.0034zm7.5125.8903c.054-.0227.0912-.0846.0849-.146-.0076-.0756-.0748-.1306-.1501-.1228 0 0-3.8877.5776-7.5603-.7721.4001-1.3054 1.4637-.8342 3.0715-.7038 2.898.1735 5.4951-.2516 7.4147-.8049 1.6634-.479 3.8479-1.424 5.5448-2.7687.5723 1.2623.7744 2.6513.7744 2.6513s.443-.0794.8132.1492c.3499.2162.6065.6655.4311 1.8273-.3568 2.1705-1.2756 3.9321-2.8198 5.5527-.9402 1.0159-2.0814 1.8993-3.3871 2.5416-.6936.3656-1.4319.6821-2.2119.9377-5.8218 1.9091-11.781-.1897-13.7019-4.6967-.1533-.3389-.2829-.6935-.3851-1.0646-.8187-2.9701-.1238-6.5333 2.0486-8.7763.0002-.0002-.0002-.0012 0-.0012.1339-.1428.2706-.311.2706-.5226 0-.1771-.112-.3639-.2092-.4963-.7601-1.1068-3.3927-2.9929-2.8643-6.6428.3795-2.6222 2.6635-4.4689 4.793-4.3595.1799.0094.3602.0204.5397.031.9229.055 1.7279.1738 2.4876.2056 1.2715.0553 2.4149-.1304 3.769-1.2631.4568-.3823.823-.7136 1.4428-.819.0652-.0112.2271-.0696.5511-.0542.3305.0176.6453.1088.928.2979 1.0858.7253 1.2396 2.482 1.296 3.7671.0321.7336.1205 2.5084.1506 3.0179.0691 1.165.3741 1.3292.9912 1.5332.347.1149.6692.2003 1.1439.3341 1.4371.4051 2.2892.8161 2.8261 1.344.3204.3299.4694.6805.5154 1.0148.1694 1.2412-.9599 2.7744-3.9491 4.1676-3.2678 1.5226-7.232 1.9082-9.971 1.602-.21-.0233-.9571-.1083-.9597-.1088-2.1909-.2962-3.4407 2.5466-2.1258 4.4943.8475 1.2552 3.1558 2.0722 5.4653 2.0726 5.2953.0005 9.3653-2.2698 10.8793-4.2305.0454-.0586.0498-.065.1211-.1734.0745-.1127.0132-.1749-.0797-.1111-1.237.8498-6.7311 4.2235-12.608 3.2085 0 0-.714-.1178-1.3659-.3724-.518-.2023-1.6022-.7032-1.7339-1.8199 4.7426 1.4726 7.7289.0804 7.7289.0804zm-26.04965-11.3163c-1.6494.322-3.10315 1.2606-3.99205 2.557-.53138-.4449-1.52124-1.3062-1.69602-1.6419-1.419271-2.7056 1.54885-7.9662 3.6223-10.937 5.12422-7.34197 13.14992-12.899223 16.86512-11.89087.6041.17163 2.6043 2.50019 2.6043 2.50019s-3.7136 2.06892-7.1577 4.95275c-4.6406 3.58753-8.14596 8.80173-10.24595 14.45983zm2.77165 12.4159c-.2497.0428-.5043.0598-.76115.0536-2.48172-.0668-5.16244-2.3101-5.42883-4.9704-.29442-2.9404 1.20199-5.2034 3.85149-5.74.31675-.0641.69956-.1011 1.11234-.0795 1.48445.0817 3.67215 1.226 4.17185 4.4731.4427 2.8757-.2603 5.8033-2.9457 6.2632zm33.6184-5.2068c-.0213-.0754-.1598-.5837-.3501-1.1961-.1902-.6128-.3873-1.0438-.3873-1.0438.7633-1.1474.7768-2.1734.6754-2.7547-.1084-.7203-.407-1.3342-1.0091-1.9687s-1.8333-1.2844-3.5638-1.7722c-.1978-.0558-.8505-.2357-.9079-.2531-.0045-.0376-.0478-2.1491-.087-3.0555-.0287-.6553-.0847-1.6782-.4009-2.6858-.3767-1.3638-1.0332-2.5572-1.8524-3.3207 2.261-2.3531 3.6726-4.94553 3.6692-7.16947-.0066-4.27685-5.238-5.570852-11.6848-2.89064-.0068.00278-1.3562.57729-1.3659.58209-.0062-.0058-2.4695-2.43257-2.5065-2.46498-7.3503-6.43698-30.33166 19.2101-22.98409 25.4391l1.60574 1.3658c-.41651 1.0834-.58018 2.3246-.44648 3.6594.1716 1.7142 1.05234 3.3575 2.47987 4.6271 1.35514 1.2056 3.13684 1.9685 4.86585 1.9671 2.85921 6.6156 9.39231 10.674 17.05231 10.9024 8.2168.2451 15.1143-3.6261 18.0045-10.5798.1891-.488.9914-2.687.9914-4.628 0-1.951-1.0985-2.7595-1.798-2.7595z"/></g></svg>

<svg xmlns="http://www.w3.org/2000/svg" width="182" height="49" viewBox="0 0 182 49" fill="none"><path d="M70.3834 18.7266C68.0532 18.7266 66.9004 20.5676 66.3715 21.7552C66.076 22.4183 65.9933 22.9426 65.7537 22.9426C65.416 22.9426 65.6578 22.4869 65.3815 21.4764C65.0179 20.1468 63.922 18.7266 61.5934 18.7266C59.1453 18.7266 58.0971 20.8033 57.6 21.9445C57.2602 22.7246 57.2597 22.9426 56.9984 22.9426C56.6196 22.9426 56.9334 22.3229 57.1037 21.5944C57.4394 20.16 57.1842 19.0638 57.1842 19.0638H53.3035V33.7153H58.6006C58.6006 33.7153 58.6006 27.5921 58.6006 26.4255C58.6006 24.9877 59.1996 23.1632 60.2265 23.1632C61.4129 23.1632 61.6504 24.078 61.6504 25.772C61.6504 27.3079 61.6504 33.7185 61.6504 33.7185H66.9688C66.9688 33.7185 66.9688 27.5581 66.9688 26.4255C66.9688 25.1457 67.489 23.1632 68.6024 23.1632C69.8054 23.1632 70.0184 24.4484 70.0184 25.772C70.0184 27.0956 70.0184 33.7153 70.0184 33.7153H75.2412C75.2412 33.7153 75.2412 27.91 75.2412 25.0993C75.2412 21.2758 73.8987 18.7266 70.3834 18.7266Z" fill="#555555"/><path d="M160.294 18.7266C157.964 18.7266 156.811 20.5676 156.282 21.7552C155.986 22.4183 155.904 22.9426 155.664 22.9426C155.326 22.9426 155.553 22.3637 155.292 21.4764C154.904 20.1538 153.938 18.7266 151.504 18.7266C149.056 18.7266 148.008 20.8033 147.511 21.9445C147.171 22.7246 147.17 22.9426 146.909 22.9426C146.53 22.9426 146.844 22.3229 147.014 21.5944C147.35 20.16 147.095 19.0638 147.095 19.0638H143.214V33.7153H148.511C148.511 33.7153 148.511 27.5921 148.511 26.4255C148.511 24.9877 149.11 23.1632 150.137 23.1632C151.323 23.1632 151.561 24.078 151.561 25.772C151.561 27.3079 151.561 33.7185 151.561 33.7185H156.879C156.879 33.7185 156.879 27.5581 156.879 26.4255C156.879 25.1457 157.4 23.1632 158.513 23.1632C159.716 23.1632 159.929 24.4484 159.929 25.772C159.929 27.0956 159.929 33.7153 159.929 33.7153H165.152C165.152 33.7153 165.152 27.91 165.152 25.0993C165.152 21.2758 163.809 18.7266 160.294 18.7266Z" fill="#555555"/><path d="M82.9963 30.2955C81.7296 30.5892 81.0729 30.1975 81.0729 29.3546C81.0729 28.1998 82.2625 27.7374 83.9606 27.7374C84.7091 27.7374 85.4129 27.8024 85.4129 27.8024C85.4129 28.2966 84.3443 29.9833 82.9963 30.2955ZM84.2859 18.7344C80.2282 18.7344 77.3167 20.2322 77.3167 20.2322V24.6349C77.3167 24.6349 80.532 22.7788 83.1403 22.7788C85.2223 22.7788 85.4781 23.9062 85.3832 24.8419C85.3832 24.8419 84.783 24.6823 82.9505 24.6823C78.6332 24.6823 76.4536 26.6524 76.4536 29.8114C76.4536 32.8079 78.9031 34.0605 80.9667 34.0605C83.9781 34.0605 85.3018 32.0288 85.7086 31.0648C85.9909 30.3961 86.0423 29.9454 86.2959 29.9454C86.5848 29.9454 86.4876 30.2687 86.4736 30.9343C86.4491 32.0998 86.5037 32.9809 86.6878 33.7231H90.6803V26.5126C90.6803 22.0107 89.0939 18.7344 84.2859 18.7344Z" fill="#555555"/><path d="M99.4059 33.7228H104.703V14.6328H99.4059V33.7228Z" fill="#555555"/><path d="M110.534 26.3973C110.534 25.0799 111.753 23.8814 113.991 23.8814C116.429 23.8814 118.39 25.0601 118.83 25.3278V20.2322C118.83 20.2322 117.281 18.7344 113.472 18.7344C109.458 18.7344 106.115 21.0929 106.115 26.1693C106.115 31.2456 109.149 34.0605 113.462 34.0605C116.83 34.0605 118.839 32.2021 118.839 32.2021V27.3621C118.203 27.7191 116.433 28.9525 114.015 28.9525C111.454 28.9525 110.534 27.77 110.534 26.3973Z" fill="#555555"/><path d="M129.561 18.7342C126.494 18.7342 125.328 21.6519 125.092 22.1586C124.857 22.665 124.74 22.9565 124.547 22.9503C124.213 22.9393 124.446 22.3284 124.576 21.9327C124.823 21.1854 125.346 19.2245 125.346 16.8145C125.346 15.1799 125.126 14.6328 125.126 14.6328H120.553V33.7229H125.85C125.85 33.7229 125.85 27.6206 125.85 26.4334C125.85 25.2458 126.322 23.1709 127.656 23.1709C128.762 23.1709 129.108 23.9932 129.108 25.6491C129.108 27.3048 129.108 33.7229 129.108 33.7229H134.405C134.405 33.7229 134.405 29.2576 134.405 25.9678C134.405 22.2068 133.784 18.7342 129.561 18.7342Z" fill="#555555"/><path d="M136.126 19.0859V33.7206H141.424V19.0859C141.424 19.0859 140.533 19.6088 138.781 19.6088C137.028 19.6088 136.126 19.0859 136.126 19.0859Z" fill="#555555"/><path d="M138.76 14.4805C136.969 14.4805 135.517 15.4318 135.517 16.6054C135.517 17.7788 136.969 18.7301 138.76 18.7301C140.55 18.7301 142.002 17.7788 142.002 16.6054C142.002 15.4318 140.55 14.4805 138.76 14.4805Z" fill="#555555"/><path d="M92.3947 19.0859V33.7206H97.6917V19.0859C97.6917 19.0859 96.8014 19.6088 95.0486 19.6088C93.296 19.6088 92.3947 19.0859 92.3947 19.0859Z" fill="#555555"/><path d="M95.0274 14.4805C93.2367 14.4805 91.7849 15.4318 91.7849 16.6054C91.7849 17.7788 93.2367 18.7301 95.0274 18.7301C96.8182 18.7301 98.27 17.7788 98.27 16.6054C98.27 15.4318 96.8182 14.4805 95.0274 14.4805Z" fill="#555555"/><path d="M174.222 30.57C173.007 30.57 172.113 29.0231 172.113 26.8678C172.113 24.7747 173.032 23.1664 174.18 23.1664C175.655 23.1664 176.283 24.5237 176.283 26.8678C176.283 29.3064 175.704 30.57 174.222 30.57ZM175.676 18.7266C172.953 18.7266 171.705 20.7767 171.163 21.9445C170.804 22.7162 170.822 22.9426 170.561 22.9426C170.182 22.9426 170.496 22.3229 170.667 21.5944C171.002 20.16 170.747 19.0638 170.747 19.0638H166.866V37.7617H172.163C172.163 37.7617 172.163 34.702 172.163 31.8335C172.79 32.9011 173.951 34.0419 175.741 34.0419C179.572 34.0419 181.5 30.788 181.5 26.3915C181.5 21.4086 179.192 18.7266 175.676 18.7266Z" fill="#555555"/><path d="M34.5896 23.1571C34.9458 23.1145 35.2871 23.1125 35.6007 23.1571C35.7822 22.7392 35.8134 22.0187 35.6501 21.2342C35.4074 20.068 35.0791 19.3623 34.4003 19.4721C33.7217 19.582 33.6966 20.4269 33.9393 21.5931C34.0758 22.249 34.3188 22.8097 34.5896 23.1571Z" fill="#555555"/><path d="M28.763 24.0786C29.2485 24.2926 29.547 24.4344 29.6637 24.3104C29.7388 24.2332 29.7165 24.0858 29.6006 23.8955C29.3609 23.5027 28.8678 23.1044 28.3448 22.8806C27.2752 22.4183 25.9995 22.5721 25.0153 23.282C24.6906 23.5211 24.3826 23.8521 24.4266 24.0532C24.4409 24.1182 24.4895 24.1672 24.6035 24.1832C24.8715 24.214 25.8074 23.7387 26.8857 23.6725C27.6467 23.6257 28.2773 23.8647 28.763 24.0786Z" fill="#555555"/><path d="M27.7863 24.6377C27.1537 24.7379 26.8048 24.9474 26.5809 25.142C26.3899 25.3096 26.2717 25.495 26.2727 25.6255C26.2731 25.6875 26.3 25.7233 26.3211 25.7413C26.35 25.7667 26.3841 25.7809 26.4251 25.7809C26.568 25.7809 26.8879 25.6518 26.8879 25.6518C27.7681 25.3356 28.3487 25.374 28.924 25.4398C29.242 25.4756 29.3922 25.4954 29.462 25.386C29.4827 25.3546 29.5076 25.2866 29.444 25.183C29.2958 24.9417 28.6572 24.5339 27.7862 24.6377" fill="#555555"/><path d="M32.6221 26.6934C33.0515 26.9052 33.5242 26.822 33.6783 26.5076C33.8321 26.1933 33.6087 25.7667 33.1792 25.5546C32.7498 25.343 32.2771 25.426 32.1231 25.7404C31.9693 26.0549 32.1926 26.4814 32.6221 26.6934Z" fill="#555555"/><path d="M35.3828 24.2696C35.034 24.2636 34.7447 24.6483 34.7365 25.1285C34.7283 25.609 35.0047 26.0031 35.3535 26.0091C35.7024 26.0151 35.9919 25.6304 35.9998 25.1501C36.008 24.6697 35.7317 24.2754 35.3828 24.2696Z" fill="#555555"/><path d="M11.9499 32.9311C11.8632 32.8219 11.7206 32.8551 11.5825 32.8875C11.4861 32.9101 11.3768 32.9355 11.2571 32.9335C11.0005 32.9284 10.7832 32.8185 10.6612 32.6302C10.5022 32.3852 10.5114 32.0198 10.6869 31.6017C10.7105 31.5451 10.7384 31.4825 10.7688 31.4143C11.0485 30.7839 11.5168 29.729 10.9911 28.7239C10.5953 27.9673 9.94993 27.4961 9.17396 27.3973C8.42902 27.3024 7.66206 27.5797 7.17286 28.1216C6.40108 28.9765 6.28046 30.1399 6.42972 30.5509C6.48444 30.7014 6.56995 30.743 6.63216 30.7516C6.76342 30.7692 6.9576 30.6734 7.07925 30.3447C7.08794 30.3212 7.09952 30.2845 7.11403 30.2379C7.16831 30.0643 7.26921 29.7408 7.43451 29.4816C7.63382 29.1689 7.94426 28.9537 8.30863 28.8753C8.67985 28.7955 9.05925 28.8667 9.37683 29.0755C9.91756 29.4305 10.1257 30.0956 9.89491 30.7303C9.77561 31.0586 9.58174 31.6861 9.62456 32.202C9.71094 33.2456 10.3503 33.6648 10.9248 33.7094C11.4834 33.7304 11.8737 33.4158 11.9725 33.1856C12.0308 33.0495 11.9816 32.9667 11.95 32.9311" fill="#555555"/><path d="M17.2599 13.7606C19.0816 11.6471 21.3242 9.80964 23.3331 8.77789C23.4026 8.74205 23.4763 8.81792 23.4387 8.88631C23.2791 9.17635 22.9721 9.79745 22.8746 10.2685C22.8595 10.3419 22.939 10.3971 23.0008 10.3549C24.2505 9.4996 26.4247 8.58306 28.3317 8.46524C28.4136 8.46014 28.4533 8.56565 28.3881 8.61586C28.098 8.8393 27.7808 9.14834 27.5491 9.46099C27.5097 9.51418 27.5469 9.59081 27.6129 9.59121C28.9519 9.60079 30.8396 10.0713 32.07 10.7642C32.1533 10.811 32.0939 10.9728 32.0009 10.9514C30.1393 10.5232 27.0921 10.1981 23.9268 10.9732C21.1009 11.6654 18.9441 12.7337 17.3706 13.8827C17.2911 13.9409 17.1956 13.8355 17.2599 13.7607L17.2599 13.7606ZM26.3329 34.2386C26.3331 34.239 26.3333 34.2397 26.3334 34.2397C26.3338 34.2403 26.334 34.2414 26.3346 34.242C26.334 34.2408 26.3334 34.2397 26.3329 34.2386ZM33.8454 35.1289C33.8994 35.1062 33.9366 35.0443 33.9303 34.9829C33.9227 34.9073 33.8555 34.8523 33.7802 34.8601C33.7802 34.8601 29.8925 35.4377 26.2199 34.088C26.62 32.7826 27.6836 33.2538 29.2914 33.3842C32.1894 33.5577 34.7865 33.1326 36.7061 32.5793C38.3695 32.1003 40.554 31.1553 42.2509 29.8106C42.8232 31.0729 43.0253 32.4619 43.0253 32.4619C43.0253 32.4619 43.4683 32.3825 43.8385 32.6111C44.1884 32.8273 44.445 33.2766 44.2696 34.4384C43.9128 36.6089 42.994 38.3705 41.4498 39.9911C40.5096 41.007 39.3684 41.8904 38.0627 42.5327C37.3691 42.8983 36.6308 43.2148 35.8508 43.4704C30.029 45.3795 24.0698 43.2807 22.1489 38.7737C21.9956 38.4348 21.866 38.0802 21.7638 37.7091C20.9451 34.739 21.64 31.1758 23.8124 28.9328C23.8126 28.9326 23.8122 28.9316 23.8124 28.9316C23.9463 28.7888 24.083 28.6206 24.083 28.409C24.083 28.2319 23.971 28.0451 23.8738 27.9127C23.1137 26.8059 20.4811 24.9198 21.0095 21.2699C21.389 18.6477 23.673 16.801 25.8025 16.9104C25.9824 16.9198 26.1627 16.9308 26.3422 16.9414C27.2651 16.9964 28.0701 17.1152 28.8298 17.147C30.1013 17.2023 31.2447 17.0166 32.5988 15.8839C33.0556 15.5016 33.4218 15.1703 34.0416 15.0649C34.1068 15.0537 34.2687 14.9953 34.5927 15.0107C34.9232 15.0283 35.238 15.1195 35.5207 15.3086C36.6065 16.0339 36.7603 17.7906 36.8167 19.0757C36.8488 19.8093 36.9372 21.5841 36.9673 22.0936C37.0364 23.2586 37.3414 23.4228 37.9585 23.6268C38.3055 23.7417 38.6277 23.8271 39.1024 23.9609C40.5395 24.366 41.3916 24.777 41.9285 25.3049C42.2489 25.6348 42.3979 25.9854 42.4439 26.3197C42.6133 27.5609 41.484 29.0941 38.4948 30.4873C35.227 32.0099 31.2628 32.3955 28.5238 32.0893C28.3138 32.066 27.5667 31.981 27.5641 31.9805C25.3732 31.6843 24.1234 34.5271 25.4383 36.4748C26.2858 37.73 28.5941 38.547 30.9036 38.5474C36.1989 38.5479 40.2689 36.2776 41.7829 34.3169C41.8283 34.2583 41.8327 34.2519 41.904 34.1435C41.9785 34.0308 41.9172 33.9686 41.8243 34.0324C40.5873 34.8822 35.0932 38.2559 29.2163 37.2409C29.2163 37.2409 28.5023 37.1231 27.8504 36.8685C27.3324 36.6662 26.2482 36.1653 26.1165 35.0486C30.8591 36.5212 33.8454 35.129 33.8454 35.129V35.1289ZM7.79575 23.8126C6.14635 24.1346 4.6926 25.0732 3.8037 26.3696C3.27232 25.9247 2.28246 25.0634 2.10768 24.7277C0.688409 22.0221 3.65653 16.7615 5.72998 13.7907C10.8542 6.44873 18.8799 0.891477 22.5951 1.89983C23.1992 2.07146 25.1994 4.40002 25.1994 4.40002C25.1994 4.40002 21.4858 6.46894 18.0417 9.35277C13.4011 12.9403 9.89574 18.1545 7.79575 23.8126ZM10.5674 36.2285C10.3177 36.2713 10.0631 36.2883 9.80625 36.2821C7.32453 36.2153 4.64381 33.972 4.37742 31.3117C4.083 28.3713 5.57941 26.1083 8.22891 25.5717C8.54566 25.5076 8.92847 25.4706 9.34125 25.4922C10.8257 25.5739 13.0134 26.7182 13.5131 29.9653C13.9558 32.841 13.2528 35.7686 10.5674 36.2285V36.2285ZM44.1858 31.0217C44.1645 30.9463 44.026 30.438 43.8357 29.8256C43.6455 29.2128 43.4484 28.7818 43.4484 28.7818C44.2117 27.6344 44.2252 26.6084 44.1238 26.0271C44.0154 25.3068 43.7168 24.6929 43.1147 24.0584C42.5126 23.4239 41.2814 22.774 39.5509 22.2862C39.3531 22.2304 38.7004 22.0505 38.643 22.0331C38.6385 21.9955 38.5952 19.884 38.556 18.9776C38.5273 18.3223 38.4713 17.2994 38.1551 16.2918C37.7784 14.928 37.1219 13.7346 36.3027 12.9711C38.5637 10.618 39.9753 8.02557 39.9719 5.80163C39.9653 1.52478 34.7339 0.230778 28.2871 2.91099C28.2803 2.91377 26.9309 3.48828 26.9212 3.49308C26.915 3.48728 24.4517 1.06051 24.4147 1.0281C17.0644 -5.40888 -5.91696 20.2382 1.43061 26.4672L3.03635 27.833C2.61984 28.9164 2.45617 30.1576 2.58987 31.4924C2.76147 33.2066 3.64221 34.8499 5.06974 36.1195C6.42488 37.3251 8.20658 38.088 9.93559 38.0866C12.7948 44.7022 19.3279 48.7606 26.9879 48.989C35.2047 49.2341 42.1022 45.3629 44.9924 38.4092C45.1815 37.9212 45.9838 35.7222 45.9838 33.7812C45.9838 31.8302 44.8853 31.0217 44.1858 31.0217Z" fill="#555555"/></svg>
